X:1
T:Rocking The Baby
M:C
L:1/8
Q:80
C:Trad.
S:Jig
K:HP
M:6/8 e | \
{g}ce{A}e{g}de{A}e | \
{g}ce{A}e{g}dcB |
{g}ce{A}e{g}de{A}e | \
{g}A{d}A{e}A{g}cB{G}A | | \
{g}ce{A}e{g}de{A}e |
{g}ce{A}e{g}dcB | \
{g}A2{d}c{gBd}B2{d}c | \
{g}A{d}A{e}A{GAG}A3 ::
e | \
ac{G}c{g}ec{G}c | \
ac{G}c{g}dcB | \
ac{G}c{g}ece |
{g}A{d}A{e}A{g}cB{G}A | | \
ac{G}c{g}ec{G}c | \
ac{G}c{g}dcB |
{g}A2{d}c{gBd}B2{d}c | \
{g}A{d}A{e}A{GAG}A3 :|
